src/img/message.svg

<svg width="55" height="55" viewBox="0 0 55 55" fill="none" xmlns="http://www.w3.org/2000/svg">
<path d="M44.4286 38.8571C44.4286 39.1987 44.1272 39.5 43.7857 39.5H14.2143C13.8728 39.5 13.5714 39.1987 13.5714 38.8571V23.4286C13.9933 23.9107 14.4554 24.3527 14.9576 24.7545C17.8304 26.9643 20.7232 29.2143 23.5156 31.5446C25.0223 32.8103 26.8906 34.3571 28.9799 34.3571H29H29.0201C31.1094 34.3571 32.9777 32.8103 34.4844 31.5446C37.2768 29.2143 40.1696 26.9643 43.0424 24.7545C43.5446 24.3527 44.0067 23.9107 44.4286 23.4286V38.8571ZM44.4286 17.7433C44.4286 19.4509 42.7813 21.6808 41.4754 22.7053C38.7835 24.8147 36.0915 26.9442 33.4196 29.0737C32.3549 29.9375 30.4263 31.7857 29.0201 31.7857H29H28.9799C27.5737 31.7857 25.6451 29.9375 24.5804 29.0737C21.9085 26.9442 19.2165 24.8147 16.5246 22.7053C14.7165 21.279 13.5714 19.2902 13.5714 17C13.5714 16.6585 13.8728 16.3571 14.2143 16.3571H43.7857C44.5491 16.3571 44.4286 17.2411 44.4286 17.7433ZM47 17C47 15.2321 45.5536 13.7857 43.7857 13.7857H14.2143C12.4464 13.7857 11 15.2321 11 17V38.8571C11 40.625 12.4464 42.0714 14.2143 42.0714H43.7857C45.5536 42.0714 47 40.625 47 38.8571V17Z" fill="white"/>
</svg>

<svg xmlns="http://www.w3.org/2000/svg" width="55" height="55" fill="none" viewBox="0 0 55 55"><path fill="#fff" d="M44.429 38.857a.66.66 0 0 1-.643.643H14.214a.66.66 0 0 1-.643-.643V23.43q.633.723 1.387 1.326c2.872 2.21 5.765 4.46 8.558 6.79 1.506 1.265 3.375 2.812 5.464 2.812h.04c2.09 0 3.958-1.547 5.464-2.812 2.793-2.33 5.686-4.58 8.558-6.79q.754-.603 1.387-1.326zm0-21.114c0 1.708-1.648 3.938-2.954 4.962-2.692 2.11-5.383 4.24-8.055 6.369-1.065.863-2.994 2.712-4.4 2.712h-.04c-1.406 0-3.335-1.849-4.4-2.712-2.671-2.13-5.363-4.26-8.055-6.369C14.717 21.28 13.57 19.29 13.57 17c0-.341.302-.643.643-.643h29.572c.763 0 .643.884.643 1.386M47 17a3.224 3.224 0 0 0-3.214-3.214H14.214A3.224 3.224 0 0 0 11 17v21.857a3.224 3.224 0 0 0 3.214 3.214h29.572A3.224 3.224 0 0 0 47 38.857z"/></svg>
